X:1
T:Himalayan Sunrise
M:4/4
L:1/8
Q:1/4=68
K:D
|: D,2 A,D F2 ED | A,,2 E,A, C2 B,A, | B,,2 F,B, D2 CB, | G,,2 D,G, B,2 A,G, :|
| d A F D A, F, D, A,, | c A E C A, E, C, A,, | B F D B, F, D, B,, F,, | G D B, G, D, B,, G,, D,, |
